X: 89
T: les Plaisirs de le Societe
%R: march, polka
B: Stewart "A Select Collection of Airs, Jigs, Marches and Reels", ca.1784, p.43 #89
F: http://imslp.org/wiki/A_Select_Collection_of_Airs,_Jigs,_Marches_and_Reels_%28Various%29
Z: 2017 John Chambers <jc:trillian.mit.edu>
M: 2/4
L: 1/16
K: G
|:\
G2GA B2G2 | d2B2g2e2 |\
d2c2B2A2 | B2AB G2D2 |\
G2GA B2G2 | d2B2g2e2 |\
d2c2B2A2 | G4 G4 ::\
D2DE F2G2 | A2D2c2B2 |\
A2D2c2B2 | A2AB AGFE |
D2DE F2G2 | A2D2c2B2 |\
A2D2c2B2 | A4 A4 |\
G2GA B2G2 | d2B2g2e2 |\
d2c2B2A2 | B2AB G2D2 |\
G2GA B2G2 | d2B2g2e2 |\
d2c2B2A2 | G4 G4 :|
